X: 11011
M: 6/8
L: 1/8
K: G
!mf!zd |\
(d2e) (f2g) | b3- b.a.g | (fg).e (^de).c | (^A2B) B2d |\
(d2e) (f2g) | b3- b.a.g | .f.e.d .c.B.A | G3 z H|]
!p!.d.d |\
(dc).c .c.c.c | (cB).B BBB | (BA)A cBA | (AG)G Gdd |\
(dc)c ccc | (cB)B BBB | (BA)A cBA | G3 "^D.C."z |]
[K:C]zG |\
ccc ccc | ("^>"g3 e2)c | ddd ddd | (a3 f2)d |\


